src/lib/packages/icons/src/assets/filled/bitcoin.svg

<svg xmlns="http://www.w3.org/2000/svg" width="24" height="24" fill="none"><path fill="currentColor" d="M16.733 11.617A4.478 4.478 0 0 0 18 8.5c0-2.31-1.756-4.197-4-4.449V3c0-.55-.45-1-1-1s-1 .45-1 1v1h-2V3c0-.55-.45-1-1-1s-1 .45-1 1v1H6a1 1 0 0 0 0 2h1v12H6a1 1 0 0 0 0 2h2v1c0 .55.45 1 1 1s1-.45 1-1v-1h2v1c0 .55.45 1 1 1s1-.45 1-1v-1h.5c2.481 0 4.5-2.019 4.5-4.5 0-1.665-.919-3.105-2.267-3.883ZM13.5 6C14.878 6 16 7.122 16 8.5S14.878 11 13.5 11H9V6h4.5Zm1 12H9v-5h5.5c1.378 0 2.5 1.122 2.5 2.5S15.878 18 14.5 18Z"/></svg>

<svg width="24" height="24" viewBox="0 0 24 24" fill="none" xmlns="http://www.w3.org/2000/svg">
<path d="M16.733 11.6169C17.514 10.8069 18 9.711 18 8.5C18 6.19 16.244 4.30303 14 4.05103V3C14 2.45 13.55 2 13 2C12.45 2 12 2.45 12 3V4H10V3C10 2.45 9.55 2 9 2C8.45 2 8 2.45 8 3V4H6C5.448 4 5 4.448 5 5C5 5.552 5.448 6 6 6H7V18H6C5.448 18 5 18.448 5 19C5 19.552 5.448 20 6 20H8V21C8 21.55 8.45 22 9 22C9.55 22 10 21.55 10 21V20H12V21C12 21.55 12.45 22 13 22C13.55 22 14 21.55 14 21V20H14.5C16.981 20 19 17.981 19 15.5C19 13.835 18.081 12.3949 16.733 11.6169ZM13.5 6C14.878 6 16 7.122 16 8.5C16 9.878 14.878 11 13.5 11H9V6H13.5ZM14.5 18H9V13H13.5H14.5C15.878 13 17 14.122 17 15.5C17 16.878 15.878 18 14.5 18Z" fill="currentColor"/>
</svg>
